X: 9839
T: Denny Mescall's
R: slide
M: 12/8
K: Amajor
c2c cBc|e2c A2B|c>ce a2f|e2c A2B|
c2c cBc|e2c A2B|c>cc BAB|1 A3 A2B:|2 A3 A2e||
a2a a2f|e2c c2e|f2b b2a|b2a f2e|
a2a a2f|e2c c2e|f2f fef|a3 a2e|
a2a a2f|e2d d2e|f2b b2a|b2a f2e|
a2a a2f|e2c c2e|e2e fee|a3 a2B|
[c2e2][ce] [ce][Be][ce]|e2[ce] [A2e2][Be]|[ce]>[ce]e [A2a2][Af]|e2[ce] A2B|
[c2e2][ce] [ce][Be][ce]|e2[ce] A2B|[ce]>[ce][ce] [Be][Ae][Be]|1 A3 A2B:|2 A3 A2[Ae]||
[A2a2][Aa] [A2a2][Af]|e2[Ac] [A2c2][Ae]|[B2f2][Bb] [B2b2][Aa]|[B2b2][Aa] [A2f2][Ae]|
[A2a2][Aa] [A2a2][Af]|[A2e2][ce] [c2e2]e|[A2f2][Af] [Af][Ae][Af]|[A3a3] [A2a2]e|
[A2a2][Aa] [A2a2][Af]|[A2e2][Dd] [D2d2][Ae]|[B2f2][Bb] [B2b2][Aa]|[B2b2][Aa] [A2f2][Ae]|
[Aa2][Aa] [Aa2][Af]|e2[ce] [c2e]e|e2e [Af]ee|[Aa3] [Aa2]B||

